X:1
T:The Well-Tempered Clavier Part II Fuga XX
T:BWV 889
T:J. S. Bach
%%score { ( 1 3 ) | 2 }
L:1/8
Q:1/4=96
M:4/4
K:C
V:1 treble nm="Harp"
V:3 treble 
V:2 bass 
V:1
"^Andante" z8 | z8 | z2 A2 G2 c2 | ^D2 z2 z A^FB | GE^CA FDB,G | z2 e2 c2 f2 | ^G2 z2 z dBe | %7
 cA^Fd BGEc | AB c2- c/4c/4d/4e/4f/4e/4d/4c/4 B2 | %9
 z c'/4b/4a/4g/4 fa/4g/4f/4e/4 d/4e/<f/e/4d/4c/4 B/4c/<d/c/4B/4A/4 | %10
 G3/2A/4B/4 c/4B/4c/4B/4c/4B/4A/4B/4 c2 z2 | z GEA ^F3/2F/4^G/4 A/4G/4A/4G/4A/4G/4F/4G/4 | %12
 A/B/4c/4d/4e/4^f/4^g/4 a2 =g2 c'2 | ^d2 z z2 a^fb | ge^ca f z/4 d/4e/4f/4 g z/4 f/4e/4d/4 | %15
 c z/4 e/4f/4g/4 a/4_b/4a/4g/4f/4e/4d/4c/4 B/4c/4B/4A/4^G/4^F/4E/4D/4 Cc | B4- B/E/A- A/A,/D- | %17
 DfBd ^G2 B2- | Be/4d/4c/4B/4 A/^c/4e/4g f z z2 | z/ d/4c/4B/c/4d/4 Gf e z z2 | z2 a2 f2 _b2 | %21
 ^c2 z2 z gea | fd z2 z fdg | ecAf dB^Ge | %24
 c2- c z z/4 B/4c/4d/4e/4^f/4^g/4a/4 b/4a/4g/4f/4e/4d/4c/4B/4 | %25
 e/4d/4c/4B/4A/4^G/4^F/4E/4 A/4=G/4=F/4E/4D/4C/4B,/4A,/4 F/4 z/4 z/ z z2 | %26
 z z/4 E/4^F/4^G/4 A/4G/4A/4G/4A/4G/4F/4G/4 A4- | ABE^G !fermata!A4 |] %28
V:2
 z2 E2 C2 F2 | ^G,2 z2 z DB,E | CA,^F,^D E,E/4=D/4C/4B,/4 A,C/4B,/4A,/4G,/4 | %3
 ^F,/4G,/<A,/G,/4F,/4E,/4 ^D,/4E,/<F,/E,/4D,/4^C,/4 B,,3/2C,/4D,/4 E,/4D,/4E,/4D,/4E,/4D,/4C,/4D,/4 | %4
 E, z/4 E,/4F,/4G,/4 A, z/4 G,/4F,/4E,/4 D, z/4 D,/4E,/4F,/4 G, z/4 F,/4E,/4D,/4 | %5
 C,>D, E,/F,/4E,/4D,/E,/ F,2 z2 | z F,B,,D, ^G,,B,, E,2 | A,, z z ^F, G, z z E, | %8
 F,G,A,G, F,D,G,F, | E,2 A,2 B,,2 z2 | z F,D,G, E,3/2E,/4^F,/4 G,/4F,/4G,/4F,/4G,/4F,/4E,/4F,/4 | %11
 G,E, A,2 z D, B,,E, | C,A,,^F,,D, E,, z z2 | z C^F,A, ^D,F, B,2 | %14
 E, z/4 E,,/4F,,/4G,,/4 A,, z/4 G,,/4F,,/4E,,/4 D,, z z2 | z A, F,D ^G,E, A,2- | %16
 A,/4A,/4B,/4C/4D/4C/4B,/4A,/4 ^G,/4A,/4G,/4^F,/4E,/4D,/4C,/4B,,/4 A,,A,/4=G,/4=F,/4E,/4 D,F,/4E,/4D,/4C,/4 | %17
 B,,/4C,/<D,/C,/4B,,/4A,,/4 ^G,,/4A,,/<B,,/A,,/4G,,/4^F,,/4 E,,3/2F,,/4G,,/4 A,,/4G,,/4A,,/4G,,/4A,,/4G,,/4F,,/4G,,/4 | %18
 A,,3/2B,,/4C,/4 D,/4^C,/4D,/4C,/4D,/4C,/4B,,/4C,/4 D,3/2E,/4F,/4 G,/4^F,/4G,/4F,/4G,/4F,/4E,/4F,/4 | %19
 G,3/2A,/4B,/4 C/4B,/4C/4B,/4C/4B,/4A,/4B,/4 C3/2D/4E/4 F/4E/4F/4E/4F/4E/4D/4E/4 | %20
 F3/2G/4A/4 B/4A/4B/4A/4B/4A/4G/4A/4 _B/_B,/4C/4D/4C/4B,/4A,/4 G,/4F,/4G,/4A,/4B,/4A,/4G,/4F,/4 | %21
 E,/4F,/<G,/F,/4E,/4D,/4 ^C,/4D,/<E,/D,/4C,/4B,,/4 A,,3/2B,,/4C,/4 D,/4C,/4D,/4C,/4D,/4C,/4B,,/4C,/4 | %22
 D,/4E,/<F,/E,/4D,/4C,/4 B,,/4C,/<D,/C,/4B,,/4A,,/4 G,,3/2A,,/4B,,/4 C,/4-B,,/4C,/4B,,/4C,/4B,,/4A,,/4B,,/4 | %23
 C, z/4 C/4D/4E/4 F z/4 E/4D/4C/4 B, z/4 B,,/4C,/4D,/4 E, z/4 D,/4C,/4B,,/4 | %24
 A,,/B,,/4C,/4D,/4E,/4^F,/4^G,/4 A,2- A,G,/F,/ E,D, | C,2 F,2 ^G,,2 z2 | z D,, B,,E, C,A,,E,,G,, | %27
 F,,/4E,,/4D,,E,,/4F,,/4 F,,/4E,,/4F,,/4E,,/4F,,/4E,,/4D,,/4E,,/4 !fermata!G,,,4 |] %28
V:3
 x8 | x8 | x8 | x8 | x8 | E A2 ^G[I:staff +1] A,A/4=G/4F/4E/4 DF/4E/4D/4C/4 | %6
[I:staff -1] B,/4C/<D/C/4B,/4A,/4 ^G,/4A,/<B,/A,/4G,/4^F,/4[I:staff +1] E,3/2^F,/4^G,/4 A,/4G,/4A,/4G,/4A,/4G,/4F,/4G,/4 | %7
 A,[I:staff -1] z/4[I:staff +1] A,/4B,/4C/4 D[I:staff -1] z/4[I:staff +1] C/4B,/4A,/4 G,[I:staff -1] z/4[I:staff +1] G,/4A,/4B,/4 C _B,/4A,/4G,/4[I:staff -1] z/4 | %8
[I:staff +1] F,/[I:staff -1]FF/- F/4E/4F/4G/4A/4G/4F/4E/4 D2- D/4E/4F/4G/4F/4E/4D/4C/4 | %9
 CG,CF z A[I:staff +1] DF | B,D[I:staff -1]F[I:staff +1]D[I:staff -1] GCA,D | %11
[I:staff +1] B,3/2B,/4^C/4 D/4C/4D/4C/4D/4C/4B,/4C/4 D2[I:staff -1] z2 | %12
 z2 z/ c/B/^f/- f/B/e/4d/4c/4B/4 Ac/4B/4A/4G/4 | %13
 ^F/4G/<A/G/4F/4E/4 ^D/4E/<F/E/4D/4^C/4[I:staff +1] B,3/2C/4D/4 E/4D/4E/4D/4E/4D/4C/4D/4 | %14
 E[I:staff -1] z z2 z[I:staff +1] DB,G | E[I:staff -1] z z2 z2 z/4 E/4=F/4=G/4A/4G/4F/4E/4 | %16
 DFB,D C2 F2 |[I:staff +1] ^G,2[I:staff -1] z2 z D B,E | C z z2 z A/4G/4F/4E/4 D/^F/4A/4=c | %19
 B z z2 z/ G/4F/4E/F/4G/4 C_B | A/B/4^c/4d- dc d2 z2 | z _BEG ^Ce A2- | AADF B,d G2- | %23
 G z z2 z DB,^G | A2 z/4 B/4A/4G/4F/4E/4D/4C/4[I:staff +1] DB,/A,/ ^G,2 | %25
 A,2[I:staff -1] z2 z/4[I:staff +1] E/4D/4C/4B,/4A,/4^G,/4^F,/4 D/4C/4B,/4A,/4G,/4F,/4E,/4^D,/4 | %26
 E,[I:staff -1] z z2 z z/4 B,/4C/4D/4 D/4^C/4D/4C/4D/4C/4B,/4C/4 | DF^G,B, ^C4 |] %28

